dist/img/menu-logo.svg

<svg width="72" height="21" viewBox="0 0 72 21" fill="none" xmlns="http://www.w3.org/2000/svg">
<g clip-path="url(#clip0_468_16215)">
<path d="M6.30591 20.7611C4.95903 20.7611 3.81711 20.5428 2.88015 20.1063C1.96271 19.6698 1.25999 19.1005 0.771989 18.3983C0.283988 17.6772 0.0107084 16.8991 -0.0478516 16.0641H2.23599C2.29455 16.5385 2.46047 17.0035 2.73375 17.4589C3.02655 17.8954 3.46575 18.256 4.05135 18.5407C4.63695 18.8064 5.39823 18.9392 6.33519 18.9392C6.62799 18.9392 6.98911 18.9107 7.41855 18.8538C7.84799 18.7969 8.25791 18.6925 8.64831 18.5407C9.05823 18.3888 9.39983 18.1611 9.67311 17.8575C9.94639 17.5538 10.083 17.1648 10.083 16.6903C10.083 16.102 9.84879 15.6466 9.38031 15.3239C8.91183 15.0013 8.30671 14.7546 7.56495 14.5838C6.82319 14.394 6.03263 14.2137 5.19327 14.0429C4.37343 13.8721 3.59263 13.6539 2.85087 13.3882C2.10911 13.1035 1.50399 12.7145 1.03551 12.2211C0.567028 11.7087 0.332788 11.016 0.332788 10.143C0.332788 8.85251 0.811029 7.85618 1.76751 7.154C2.74351 6.43285 4.17823 6.07227 6.07167 6.07227C7.35999 6.07227 8.40431 6.27153 9.20463 6.67007C10.0245 7.04962 10.6393 7.54305 11.0493 8.15033C11.4787 8.75762 11.7325 9.41236 11.8105 10.1145H9.58527C9.50719 9.50724 9.19487 8.98536 8.64831 8.54887C8.12127 8.11238 7.24287 7.89413 6.01311 7.89413C3.69023 7.89413 2.52879 8.57733 2.52879 9.94373C2.52879 10.5131 2.76303 10.9496 3.23151 11.2532C3.69999 11.5568 4.30511 11.8036 5.04687 11.9933C5.78863 12.1641 6.56943 12.3349 7.38927 12.5057C8.22863 12.6576 9.01919 12.8758 9.76095 13.1605C10.5027 13.4451 11.1078 13.8532 11.5763 14.3845C12.0448 14.8969 12.279 15.5991 12.279 16.4911C12.279 17.8764 11.7325 18.9392 10.6393 19.6793C9.56575 20.4005 8.12127 20.7611 6.30591 20.7611Z" fill="#111111"/>
<path d="M20.1384 20.7611C18.6549 20.7611 17.3666 20.4384 16.2735 19.7932C15.1803 19.129 14.341 18.237 13.7554 17.1173C13.1698 15.9976 12.877 14.7641 12.877 13.4167C12.877 12.0503 13.1698 10.8167 13.7554 9.716C14.341 8.59631 15.1803 7.71385 16.2735 7.0686C17.3666 6.40438 18.6549 6.07227 20.1384 6.07227C21.6415 6.07227 22.9298 6.40438 24.0034 7.0686C25.0965 7.71385 25.9359 8.59631 26.5215 9.716C27.1071 10.8167 27.3999 12.0503 27.3999 13.4167C27.3999 14.7641 27.1071 15.9976 26.5215 17.1173C25.9359 18.237 25.0965 19.129 24.0034 19.7932C22.9298 20.4384 21.6415 20.7611 20.1384 20.7611ZM20.1384 18.8253C21.2315 18.8253 22.149 18.5786 22.8907 18.0852C23.652 17.5918 24.2279 16.937 24.6183 16.121C25.0087 15.286 25.2039 14.3845 25.2039 13.4167C25.2039 12.4298 25.0087 11.5284 24.6183 10.7123C24.2279 9.89629 23.652 9.24156 22.8907 8.74813C22.149 8.25471 21.2315 8.008 20.1384 8.008C19.0648 8.008 18.1474 8.25471 17.3861 8.74813C16.6248 9.24156 16.049 9.89629 15.6586 10.7123C15.2682 11.5284 15.073 12.4298 15.073 13.4167C15.073 14.3845 15.2682 15.286 15.6586 16.121C16.049 16.937 16.6248 17.5918 17.3861 18.0852C18.1474 18.5786 19.0648 18.8253 20.1384 18.8253Z" fill="#111111"/>
<path d="M28.9942 20.5333V0.606667H31.1903V20.5333H28.9942Z" fill="#111111"/>
<path d="M33.6813 20.5333V0.606667H35.8773V20.5333H33.6813Z" fill="#111111"/>
<path d="M44.5465 20.7611C43.1215 20.7611 41.8723 20.4384 40.7987 19.7932C39.7446 19.129 38.9247 18.237 38.3391 17.1173C37.7535 15.9976 37.4607 14.7641 37.4607 13.4167C37.4607 12.0503 37.7535 10.8167 38.3391 9.716C38.9247 8.59631 39.7446 7.71385 40.7987 7.0686C41.8723 6.40438 43.1215 6.07227 44.5465 6.07227C45.7567 6.07227 46.7913 6.3 47.6502 6.75547C48.5286 7.21093 49.2411 7.82771 49.7876 8.6058V6.3H51.9836V20.5333H49.7876V18.256C49.2411 19.0151 48.5286 19.6224 47.6502 20.0779C46.7913 20.5333 45.7567 20.7611 44.5465 20.7611ZM44.8393 18.8253C45.9324 18.8253 46.8499 18.5786 47.5916 18.0852C48.3529 17.5918 48.9287 16.937 49.3191 16.121C49.7095 15.286 49.9047 14.3845 49.9047 13.4167C49.9047 12.4298 49.7095 11.5284 49.3191 10.7123C48.9287 9.89629 48.3529 9.24156 47.5916 8.74813C46.8499 8.25471 45.9324 8.008 44.8393 8.008C43.7657 8.008 42.8385 8.25471 42.0577 8.74813C41.2769 9.24156 40.6815 9.89629 40.2716 10.7123C39.8617 11.5284 39.6567 12.4298 39.6567 13.4167C39.6567 14.3845 39.8617 15.286 40.2716 16.121C40.6815 16.937 41.2769 17.5918 42.0577 18.0852C42.8385 18.5786 43.7657 18.8253 44.8393 18.8253Z" fill="#111111"/>
<path d="M59.7934 20.7611C58.4465 20.7611 57.3046 20.5428 56.3676 20.1063C55.4502 19.6698 54.7475 19.1005 54.2595 18.3983C53.7715 17.6772 53.4982 16.8991 53.4396 16.0641H55.7235C55.782 16.5385 55.9479 17.0035 56.2212 17.4589C56.514 17.8954 56.9532 18.256 57.5388 18.5407C58.1244 18.8064 58.8857 18.9392 59.8227 18.9392C60.1155 18.9392 60.4766 18.9107 60.906 18.8538C61.3355 18.7969 61.7454 18.6925 62.1358 18.5407C62.5457 18.3888 62.8873 18.1611 63.1606 17.8575C63.4339 17.5538 63.5705 17.1648 63.5705 16.6903C63.5705 16.102 63.3363 15.6466 62.8678 15.3239C62.3993 15.0013 61.7942 14.7546 61.0524 14.5838C60.3107 14.394 59.5201 14.2137 58.6807 14.0429C57.8609 13.8721 57.0801 13.6539 56.3383 13.3882C55.5966 13.1035 54.9915 12.7145 54.523 12.2211C54.0545 11.7087 53.8203 11.016 53.8203 10.143C53.8203 8.85251 54.2985 7.85618 55.255 7.154C56.231 6.43285 57.6657 6.07227 59.5591 6.07227C60.8475 6.07227 61.8918 6.27153 62.6921 6.67007C63.5119 7.04962 64.1268 7.54305 64.5367 8.15033C64.9662 8.75762 65.2199 9.41236 65.298 10.1145H63.0727C62.9947 9.50724 62.6823 8.98536 62.1358 8.54887C61.6087 8.11238 60.7303 7.89413 59.5006 7.89413C57.1777 7.89413 56.0163 8.57733 56.0163 9.94373C56.0163 10.5131 56.2505 10.9496 56.719 11.2532C57.1875 11.5568 57.7926 11.8036 58.5343 11.9933C59.2761 12.1641 60.0569 12.3349 60.8767 12.5057C61.7161 12.6576 62.5067 12.8758 63.2484 13.1605C63.9902 13.4451 64.5953 13.8532 65.0638 14.3845C65.5323 14.8969 65.7665 15.5991 65.7665 16.4911C65.7665 17.8764 65.2199 18.9392 64.1268 19.6793C63.0532 20.4005 61.6087 20.7611 59.7934 20.7611Z" fill="#111111"/>
<ellipse cx="68.8798" cy="3.03333" rx="3.12" ry="3.03333" fill="#FB7B54"/>
</g>
<defs>
<clipPath id="clip0_468_16215">
<rect width="72" height="21" fill="white"/>
</clipPath>
</defs>
</svg>

<svg width="72" height="21" fill="none" xmlns="http://www.w3.org/2000/svg"><g clip-path="url(#clip0_468_16215)"><path d="M6.306 20.761c-1.347 0-2.489-.218-3.426-.655-.917-.436-1.62-1.006-2.108-1.708a4.689 4.689 0 01-.82-2.334h2.284c.059.474.224.94.498 1.395.293.436.732.797 1.317 1.082.586.265 1.347.398 2.284.398.293 0 .654-.028 1.084-.085a5.363 5.363 0 001.23-.313 2.54 2.54 0 001.024-.683c.273-.304.41-.693.41-1.168 0-.588-.234-1.043-.703-1.366-.468-.323-1.073-.57-1.815-.74-.742-.19-1.532-.37-2.372-.541-.82-.17-1.6-.39-2.342-.655-.742-.284-1.347-.674-1.815-1.167-.469-.512-.703-1.205-.703-2.078 0-1.29.478-2.287 1.435-2.989.976-.721 2.41-1.082 4.304-1.082 1.288 0 2.332.2 3.133.598.82.38 1.434.873 1.844 1.48a4.14 4.14 0 01.761 1.964H9.585c-.078-.607-.39-1.129-.937-1.565-.527-.437-1.405-.655-2.635-.655-2.323 0-3.484.683-3.484 2.05 0 .57.234 1.006.703 1.31.468.303 1.073.55 1.815.74.742.17 1.522.34 2.342.512.84.152 1.63.37 2.372.655.742.284 1.347.692 1.815 1.223.469.513.703 1.215.703 2.107 0 1.385-.546 2.448-1.64 3.188-1.073.722-2.518 1.082-4.333 1.082zm13.832 0c-1.483 0-2.771-.323-3.865-.968a6.728 6.728 0 01-2.518-2.676c-.585-1.12-.878-2.353-.878-3.7 0-1.367.293-2.6.878-3.701a6.535 6.535 0 012.518-2.647c1.094-.665 2.382-.997 3.865-.997 1.503 0 2.792.332 3.865.997a6.536 6.536 0 012.518 2.647c.586 1.1.879 2.334.879 3.7 0 1.348-.293 2.582-.878 3.701a6.73 6.73 0 01-2.519 2.676c-1.073.645-2.361.968-3.865.968zm0-1.936c1.093 0 2.011-.246 2.753-.74a4.732 4.732 0 001.727-1.964 6.31 6.31 0 00.586-2.704c0-.987-.195-1.889-.586-2.705a4.732 4.732 0 00-1.727-1.964c-.742-.493-1.66-.74-2.753-.74-1.073 0-1.99.247-2.752.74a4.732 4.732 0 00-1.727 1.964c-.39.816-.586 1.718-.586 2.705 0 .967.195 1.869.586 2.704.39.816.966 1.47 1.727 1.964.761.494 1.679.74 2.752.74zm8.856 1.708V.607h2.196v19.926h-2.196zm4.687 0V.607h2.196v19.926h-2.196zm10.866.228c-1.425 0-2.675-.323-3.748-.968a6.864 6.864 0 01-2.46-2.676c-.585-1.12-.878-2.353-.878-3.7 0-1.367.293-2.6.878-3.701a6.659 6.659 0 012.46-2.647c1.073-.665 2.322-.997 3.748-.997 1.21 0 2.244.228 3.103.683a5.863 5.863 0 012.138 1.85V6.3h2.196v14.233h-2.196v-2.277a5.973 5.973 0 01-2.138 1.822c-.859.455-1.893.683-3.103.683zm.292-1.936c1.093 0 2.01-.246 2.753-.74a4.732 4.732 0 001.727-1.964 6.31 6.31 0 00.586-2.704c0-.987-.196-1.889-.586-2.705a4.732 4.732 0 00-1.727-1.964c-.742-.493-1.66-.74-2.753-.74-1.073 0-2 .247-2.781.74a4.873 4.873 0 00-1.786 1.964c-.41.816-.615 1.718-.615 2.705 0 .967.205 1.869.615 2.704a4.873 4.873 0 001.786 1.964c.78.494 1.708.74 2.781.74zm14.954 1.936c-1.346 0-2.488-.218-3.425-.655-.918-.436-1.62-1.006-2.108-1.708a4.69 4.69 0 01-.82-2.334h2.284c.058.474.224.94.497 1.395.293.436.732.797 1.318 1.082.585.265 1.347.398 2.284.398a8.46 8.46 0 001.083-.085c.43-.057.84-.162 1.23-.313a2.54 2.54 0 001.025-.683c.273-.304.41-.693.41-1.168 0-.588-.235-1.043-.703-1.366-.469-.323-1.074-.57-1.816-.74-.741-.19-1.532-.37-2.371-.541-.82-.17-1.6-.39-2.343-.655-.741-.284-1.346-.674-1.815-1.167-.469-.512-.703-1.205-.703-2.078 0-1.29.478-2.287 1.435-2.989.976-.721 2.41-1.082 4.304-1.082 1.288 0 2.333.2 3.133.598.82.38 1.435.873 1.845 1.48a4.15 4.15 0 01.761 1.964h-2.225c-.078-.607-.39-1.129-.937-1.565-.527-.437-1.406-.655-2.635-.655-2.323 0-3.485.683-3.485 2.05 0 .57.235 1.006.703 1.31.468.303 1.074.55 1.815.74.742.17 1.523.34 2.343.512.84.152 1.63.37 2.371.655.742.284 1.347.692 1.816 1.223.468.513.703 1.215.703 2.107 0 1.385-.547 2.448-1.64 3.188-1.074.722-2.518 1.082-4.334 1.082z" fill="#111"/><ellipse cx="68.88" cy="3.033" rx="3.12" ry="3.033" fill="#FB7B54"/></g><defs><clipPath id="clip0_468_16215"><path fill="#fff" d="M0 0h72v21H0z"/></clipPath></defs></svg>
